images/replace1.svg

<?xml version="1.0" encoding="UTF-8"?>
<svg id="svg11576" version="1.1" viewBox="0 0 244 433" xmlns="http://www.w3.org/2000/svg" xmlns:cc="http://creativecommons.org/ns#" xmlns:dc="http://purl.org/dc/elements/1.1/" xmlns:rdf="http://www.w3.org/1999/02/22-rdf-syntax-ns#">
 <metadata id="metadata11582">
  <rdf:RDF>
   <cc:Work rdf:about="">
    <dc:format>image/svg+xml</dc:format>
    <dc:type rdf:resource="http://purl.org/dc/dcmitype/StillImage"/>
    <dc:title>images/replace1</dc:title>
   </cc:Work>
  </rdf:RDF>
 </metadata>
 <!-- Generator: Sketch 56.3 (81716) - https://sketch.com -->
 <title id="title11508">images/replace1</title>
 <desc id="desc11510">Created with Sketch.</desc>
 <g id="g11750" transform="translate(-182,-32)">
  <path id="Line" d="m244 118v-25h1v25h4l-4.5 9-4.5-9z" style="fill:#8f8981"/>
  <g id="g11640">
   <rect id="Rectangle-2" transform="translate(186,36)" x=".5" y=".5" width="109.58" height="56" style="fill-rule:evenodd;fill:#efefe7;stroke:#979797"/>
   <text id="master-4" transform="translate(186.56 41)" font-size="12px" font-weight="700" style="fill-rule:evenodd;fill:#404040;font-family:'Source Code Pro';font-feature-settings:normal;font-size:16px;font-variant-caps:normal;font-variant-ligatures:normal;font-variant-numeric:normal;font-weight:600;text-align:center;text-anchor:middle"><tspan id="tspan11515" x="54.790054" y="18.546875" style="fill:#404040;font-family:'Source Code Pro';font-feature-settings:normal;font-size:16px;font-variant-caps:normal;font-variant-ligatures:normal;font-variant-numeric:normal;font-weight:600;text-align:center;text-anchor:middle">ef989</tspan></text>
   <text id="fifth" transform="translate(-.83257)" font-size="12px" font-weight="700" style="fill-rule:evenodd;fill:#9b9b9b;font-family:'Source Code Pro';font-size:12px;font-weight:700"><tspan id="tspan11519" x="224" y="81">fifth</tspan></text>
  </g>
  <g id="g11666">
   <rect id="rect11522" transform="translate(187,128)" x=".5" y=".5" width="109.58" height="56" style="fill-rule:evenodd;fill:#efefe7;stroke:#979797"/>
   <text id="text11526" transform="translate(187.38 133.06)" font-size="12px" font-weight="700" style="fill-rule:evenodd;fill:#404040;font-family:'Source Code Pro';font-feature-settings:normal;font-size:16px;font-variant-caps:normal;font-variant-ligatures:normal;font-variant-numeric:normal;font-weight:600;text-align:center;text-anchor:middle"><tspan id="tspan11524" x="54.790054" y="18.546875" style="fill:#404040;font-family:'Source Code Pro';font-feature-settings:normal;font-size:16px;font-variant-caps:normal;font-variant-ligatures:normal;font-variant-numeric:normal;font-weight:600;text-align:center;text-anchor:middle">c6e1e</tspan></text>
   <text id="fourth" transform="translate(-1.4302)" font-size="12px" font-weight="700" style="fill-rule:evenodd;fill:#9b9b9b;font-family:'Source Code Pro';font-size:12px;font-weight:700"><tspan id="tspan11530" x="222" y="173">fourth</tspan></text>
  </g>
  <path id="Line-3" d="m244 210v-25h1v25h4l-4.5 9-4.5-9z" style="fill:#8f8981"/>
  <g id="g11680">
   <rect id="rect11534" transform="translate(187,220)" x=".5" y=".5" width="109.58" height="56" style="fill-rule:evenodd;fill:#efefe7;stroke:#979797"/>
   <text id="text11538" transform="translate(187.16 224.97)" font-size="12px" font-weight="700" style="fill-rule:evenodd;fill:#404040;font-family:'Source Code Pro';font-feature-settings:normal;font-size:16px;font-variant-caps:normal;font-variant-ligatures:normal;font-variant-numeric:normal;font-weight:600;text-align:center;text-anchor:middle"><tspan id="tspan11536" x="54.790054" y="18.546875" style="fill:#404040;font-family:'Source Code Pro';font-feature-settings:normal;font-size:16px;font-variant-caps:normal;font-variant-ligatures:normal;font-variant-numeric:normal;font-weight:600;text-align:center;text-anchor:middle">9c68f</tspan></text>
   <text id="third" transform="translate(.43743)" font-size="12px" font-weight="700" style="fill-rule:evenodd;fill:#9b9b9b;font-family:'Source Code Pro';font-size:12px;font-weight:700"><tspan id="tspan11542" x="224" y="265">third</tspan></text>
  </g>
  <path id="Line-4" d="m244 302v-25h1v25h4l-4.5 9-4.5-9z" style="fill:#8f8981"/>
  <g id="g11694">
   <rect id="rect11546" transform="translate(187,312)" x=".5" y=".5" width="109.58" height="56" style="fill-rule:evenodd;fill:#efefe7;stroke:#979797"/>
   <text id="text11550" transform="translate(187.53 317.06)" font-size="12px" font-weight="700" style="fill-rule:evenodd;fill:#404040;font-family:'Source Code Pro';font-feature-settings:normal;font-size:16px;font-variant-caps:normal;font-variant-ligatures:normal;font-variant-numeric:normal;font-weight:600;text-align:center;text-anchor:middle"><tspan id="tspan11548" x="54.790054" y="18.546875" style="fill:#404040;font-family:'Source Code Pro';font-feature-settings:normal;font-size:16px;font-variant-caps:normal;font-variant-ligatures:normal;font-variant-numeric:normal;font-weight:600;text-align:center;text-anchor:middle">94570</tspan></text>
   <text id="second" transform="translate(-1.1842)" font-size="12px" font-weight="700" style="fill-rule:evenodd;fill:#9b9b9b;font-family:'Source Code Pro';font-size:12px;font-weight:700"><tspan id="tspan11554" x="222" y="357">second</tspan></text>
  </g>
  <path id="Line-5" d="m244 394v-25h1v25h4l-4.5 9-4.5-9z" style="fill:#8f8981"/>
  <g id="g11708">
   <rect id="rect11558" transform="translate(187,404)" x=".5" y=".5" width="109.58" height="56" style="fill-rule:evenodd;fill:#efefe7;stroke:#979797"/>
   <text id="text11562" transform="translate(187.49 409.08)" font-size="12px" font-weight="700" style="fill-rule:evenodd;fill:#404040;font-family:'Source Code Pro';font-feature-settings:normal;font-size:16px;font-variant-caps:normal;font-variant-ligatures:normal;font-variant-numeric:normal;font-weight:600;text-align:center;text-anchor:middle"><tspan id="tspan11560" x="54.790054" y="18.546875" style="fill:#404040;font-family:'Source Code Pro';font-feature-settings:normal;font-size:16px;font-variant-caps:normal;font-variant-ligatures:normal;font-variant-numeric:normal;font-weight:600;text-align:center;text-anchor:middle">c1822</tspan></text>
   <text id="first" transform="translate(-1.8926)" font-size="12px" font-weight="700" style="fill-rule:evenodd;fill:#9b9b9b;font-family:'Source Code Pro';font-size:12px;font-weight:700"><tspan id="tspan11566" x="226" y="449">first</tspan></text>
  </g>
  <g id="g11652">
   <path id="Line-2" d="m306 64h31v1h-31v4l-9-4.5 9-4.5z" style="fill:#8f8981"/>
   <g id="g11645">
    <rect id="rect11569" transform="matrix(.83962 0 0 1 333 48)" width="106" height="33" style="fill-rule:evenodd;fill:#f44d27"/>
    <text id="master" transform="translate(324.6 48.316)" font-size="12px" font-weight="700" style="fill-rule:evenodd;fill:#979797;font-family:'Source Code Pro';font-size:12px;font-weight:700;text-anchor:middle"><tspan id="tspan11571" x="53" y="20" style="fill:#f0f0f0">master</tspan></text>
   </g>
  </g>
 </g>
</svg>

<?xml version="1.0"?>
<svg xmlns="http://www.w3.org/2000/svg" xmlns:xlink="http://www.w3.org/1999/xlink" width="480px" height="493px" viewBox="0 0 480 493" version="1.1">
    <!-- Generator: Sketch 56.3 (81716) - https://sketch.com -->
    <title>images/replace1</title>
    <desc>Created with Sketch.</desc>
    <g id="replace1" stroke="none" stroke-width="1" fill="none" fill-rule="evenodd">
        <path id="Line" d="M244,118 L244,93 L245,93 L245,118 L249,118 L244.5,127 L240,118 L244,118 Z" fill="#8F8981" fill-rule="nonzero"/>
        <path id="Line-2" d="M306,64 L337,64 L337,65 L306,65 L306,69 L297,64.5 L306,60 L306,64 Z" fill="#8F8981" fill-rule="nonzero"/>
        <g id="other-(2-line)" transform="translate(186.000000, 36.000000)" stroke="#979797">
            <rect id="Rectangle-2" fill="#EFEFE7" fill-rule="evenodd" x="0.5" y="0.5" width="109.580108" height="56"/>
            <text stroke="none" font-family="Source Code Pro" font-size="12px" font-weight="700" fill="#979797" fill-opacity="1" text-anchor="middle" id="master-4">
                <tspan fill="#808080" x="54.790054" y="18.546875" >ef989</tspan>
            </text>
        </g>
        <text stroke="none" font-family="Source Code Pro" font-size="12px" font-weight="700" fill="#9B9B9B" fill-opacity="1" id="fifth">
            <tspan x="224" y="81">fifth</tspan>
        </text>
        <g id="other-(2-line)" transform="translate(187.000000, 128.000000)" stroke="#979797">
            <rect id="Rectangle-2" fill="#EFEFE7" fill-rule="evenodd" x="0.5" y="0.5" width="109.580108" height="56"/>
            <text stroke="none" font-family="Source Code Pro" font-size="12px" font-weight="700" fill="#979797" fill-opacity="1" text-anchor="middle" id="master-4">
                <tspan fill="#808080" x="54.790054" y="18.546875" >c6e1e</tspan>
            </text>
        </g>
        <text stroke="none" font-family="Source Code Pro" font-size="12px" font-weight="700" fill="#9B9B9B" fill-opacity="1" id="fourth">
            <tspan x="222" y="173">fourth</tspan>
        </text>
        <path id="Line-3" d="M244,210 L244,185 L245,185 L245,210 L249,210 L244.5,219 L240,210 L244,210 Z" fill="#8F8981" fill-rule="nonzero"/>
        <g id="other-(2-line)" transform="translate(187.000000, 220.000000)" stroke="#979797">
            <rect id="Rectangle-2" fill="#EFEFE7" fill-rule="evenodd" x="0.5" y="0.5" width="109.580108" height="56"/>
            <text stroke="none" font-family="Source Code Pro" font-size="12px" font-weight="700" fill="#979797" fill-opacity="1" text-anchor="middle" id="master-4">
                <tspan fill="#808080" x="54.790054" y="18.546875" >9c68f</tspan>
            </text>
        </g>
        <text stroke="none" font-family="Source Code Pro" font-size="12px" font-weight="700" fill="#9B9B9B" fill-opacity="1" id="third">
            <tspan x="224" y="265">third</tspan>
        </text>
        <path id="Line-4" d="M244,302 L244,277 L245,277 L245,302 L249,302 L244.5,311 L240,302 L244,302 Z" fill="#8F8981" fill-rule="nonzero"/>
        <g id="other-(2-line)" transform="translate(187.000000, 312.000000)" stroke="#979797">
            <rect id="Rectangle-2" fill="#EFEFE7" fill-rule="evenodd" x="0.5" y="0.5" width="109.580108" height="56"/>
            <text stroke="none" font-family="Source Code Pro" font-size="12px" font-weight="700" fill="#979797" fill-opacity="1" text-anchor="middle" id="master-4">
                <tspan fill="#808080" x="54.790054" y="18.546875" >94570</tspan>
            </text>
        </g>
        <text stroke="none" font-family="Source Code Pro" font-size="12px" font-weight="700" fill="#9B9B9B" fill-opacity="1" id="second">
            <tspan x="222" y="357">second</tspan>
        </text>
        <path id="Line-5" d="M244,394 L244,369 L245,369 L245,394 L249,394 L244.5,403 L240,394 L244,394 Z" fill="#8F8981" fill-rule="nonzero"/>
        <g id="other-(2-line)" transform="translate(187.000000, 404.000000)" stroke="#979797">
            <rect id="Rectangle-2" fill="#EFEFE7" fill-rule="evenodd" x="0.5" y="0.5" width="109.580108" height="56"/>
            <text stroke="none" font-family="Source Code Pro" font-size="12px" font-weight="700" fill="#979797" fill-opacity="1" text-anchor="middle" id="master-4">
                <tspan fill="#808080" x="54.790054" y="18.546875" >c1822</tspan>
            </text>
        </g>
        <text stroke="none" font-family="Source Code Pro" font-size="12px" font-weight="700" fill="#9B9B9B" fill-opacity="1" id="first">
            <tspan x="226" y="449">first</tspan>
        </text>
        <g id="ref" transform="translate(333.000000, 41.000000)">
            <rect id="Rectangle-2" fill="#F44D27" fill-rule="evenodd" x="0" y="0" width="106" height="33"/>
            <text stroke="none" font-family="Source Code Pro" font-size="12px" font-weight="700" fill="#979797" fill-opacity="1" text-anchor="middle" id="master">
                <tspan fill="#f0f0f0" x="53" y="20" >master</tspan>
            </text>
        </g>
    </g>
</svg>
